public/icons/gg-comunication.svg

<svg width="64" height="65" viewBox="0 0 64 65" fill="none" xmlns="http://www.w3.org/2000/svg">
<path d="M54.6667 8.18164H42.6667V0.181641H21.3333V8.18164H9.33333V22.8483H0V41.515H9.33333V56.1816H21.3333V64.1816H42.6667V56.1816H54.6667V41.515H64V22.8483H54.6667V8.18164ZM24 2.84831H40V16.1816H24V2.84831ZM2.66667 25.515H18.6667V38.8483H2.66667V25.515ZM40 61.515H24V48.1816H40V61.515ZM52 53.515H42.6667V45.515H21.3333V53.515H12V41.515H21.3333V22.8483H12V10.8483H21.3333V18.8483H42.6667V10.8483H52V22.8483H42.6667V41.515H52V53.515ZM61.3333 38.8483H45.3333V25.515H61.3333V38.8483Z" fill="#F3F3F3"/>
</svg>

<svg xmlns="http://www.w3.org/2000/svg" fill="none" width="64" height="65" viewBox="0 0 64 65"><path d="M54.667 8.182h-12v-8H21.333v8h-12v14.666H0v18.667h9.333v14.667h12v8h21.334v-8h12V41.515H64V22.848h-9.333V8.182zM24 2.848h16v13.334H24V2.848zM2.667 25.515h16v13.333h-16V25.515zm37.333 36H24V48.182h16v13.333zm12-8h-9.333v-8H21.333v8H12v-12h9.333V22.848H12v-12h9.333v8h21.334v-8H52v12h-9.333v18.667H52v12zm9.333-14.667h-16V25.515h16v13.333z" fill="#F3F3F3"/></svg>
